X:355
T: Sarah Casey
S: Reavy Collection: "Music of Corktown"
M: 4/4
L: 1/8
R: hornpipe %"highland"
Z: B.Black
K: Ador
AG|EGAB cBcA|G2 dc BGGD|EGAB cBce|dBgB A2 AG|
EGAB cBcA|G2 dc BGGD|EGAB cBce|dBgB A2 :|
eg|abag edBd|gfge dBGB|abag edBe|dBgB A2 eg|
abag edBd|gfge dBGB|AGAB cBce|dBgB A2 :|
